X: 14664
T: Gan Ainm
R: polka
M: 2/4
K: Bminor
|:FB BA/B/|de f>a|ed cA|B/c/B B>A|
FB BA/B/|de f>a|ed cA|1 B2 B>A:|2 B2 B>c||
|:df fe/d/|ce a>f|ec BA|B/c/B B>c|
df fe/d/|ce a>f|ec BA|1 B2 B>c:|2 B2 B>A||

